X: 1
T: Elizabeth Keane's
M: 6/8
L: 1/8
R: jig
K: Ddor
A2d cec | AGE EDE | A,DE F3 | ~G3 cGE |
D2d cec | AGE EDC | A,DE F3 | ~E3 D2z :|
|:Ade f2g | gfg afd | GAc ecc | gcc edc |
Ade f2g | gfg afd | cdc AGE | EDE D2z :|
